Newaita-dark/apps/64/jyellow.svg

<svg height="64" viewBox="0 0 64 64" width="64" xmlns="http://www.w3.org/2000/svg" xmlns:xlink="http://www.w3.org/1999/xlink"><linearGradient id="a" gradientUnits="userSpaceOnUse" x1="27.122395" x2="27.122395" y1="56.06786687518" y2="58.71395300006"><stop offset="0" stop-opacity=".27451"/><stop offset="1" stop-opacity="0"/></linearGradient><linearGradient id="b"><stop offset="0" stop-opacity=".313726"/><stop offset=".222222" stop-opacity=".27451"/><stop offset="1" stop-opacity="0"/></linearGradient><radialGradient id="c" cx="450.908936" cy="189.579361" gradientTransform="matrix(.00000035 -.156265 -.281277 -.0000002 86.400218 127.190669)" gradientUnits="userSpaceOnUse" r="21.166656" xlink:href="#b"/><radialGradient id="d" cx="450.908936" cy="189.579361" gradientTransform="matrix(-.00000035 .156265 .281277 .0000002 -22.894146 -15.05496)" gradientUnits="userSpaceOnUse" r="21.166656" xlink:href="#b"/><radialGradient id="e" cx="450.908936" cy="189.579361" gradientTransform="matrix(-.00000035 -.156265 .281277 -.0000002 -22.894146 127.190669)" gradientUnits="userSpaceOnUse" r="21.166656" xlink:href="#b"/><radialGradient id="f" cx="450.908936" cy="189.579361" gradientTransform="matrix(.00000035 .156265 -.281277 .0000002 86.400214 -15.054966)" gradientUnits="userSpaceOnUse" r="21.166656" xlink:href="#b"/><linearGradient id="g" gradientUnits="userSpaceOnUse" x1="31.753048" x2="31.75304987518" y1="64.00613" y2="-4.79213999994"><stop offset="0" stop-color="#ffa726"/><stop offset="1" stop-color="#ffb74d"/></linearGradient><path d="m29.769531 55.074219h3.96875v3.640625h-3.96875zm0 0" fill="url(#a)"/><path d="m33.738281 56.066406h5.292969v-2.644531h-5.292969zm0 0" fill="url(#c)"/><path d="m29.769531 56.066406h-5.292969v2.648438h5.292969zm0 0" fill="url(#d)"/><path d="m29.769531 56.066406h-5.292969v-2.644531h5.292969zm0 0" fill="url(#e)"/><path d="m33.738281 56.066406h5.292969v2.648438h-5.292969zm0 0" fill="url(#f)"/><path d="m26.460938 5.792969v7.9375c.800781.164062 5.140624-.039063 6.609374-.023438 1.992188.023438 1.328126 2.007813 1.328126 2.007813s.136718 3.222656.136718 14.964844c0 19.660156.269532 19.152343-5.890625 19.140624-5.261719-.011718-6.308593-1.367187-3.738281-4.210937 3.921875-5.472656-.867188-10.269531-6.382812-10.710937-5.292969 0-10.585938 0-10.476563 7.96875-.109375 13.199218 13.667969 13.109374 20.746094 13.230468 8.253906-.03125 15.183593-1.347656 18.835937-9.292968 1.292969-3.347657 1.429688-30.523438 1.429688-30.523438-.105469.09375-.105469-2.550781 1.21875-2.550781h5.289062l.070313-7.9375zm0 0" fill="url(#g)"/><path d="m26.460938 5.792969v.660156h29.171874l.003907-.660156zm8.015624 9.570312c-.03125.210938-.078124.351563-.078124.351563s.007812.195312.019531.597656c.042969-.152344.132812-.546875.058593-.949219zm14.5625.898438c-.039062.390625-.019531.6875.015626.683593 0-.253906.003906-.664062.003906-.664062-.007813.007812-.011719 0-.019532-.019531zm-30.515624 18.636719c-5.292969 0-10.585938 0-10.476563 7.96875-.003906.074218 0 .140624 0 .210937.09375-7.515625 5.285156-7.515625 10.476563-7.515625 3.984374.316406 7.589843 2.910156 7.804687 6.386719.234375-3.804688-3.570313-6.710938-7.804687-7.050781zm16.015624.796874c-.007812 14.550782-.3125 14.136719-5.894531 14.125-3.125-.007812-4.765625-.488281-5.039062-1.476562-.328125 1.4375 1.28125 2.128906 5.039062 2.136719 5.664063.011719 5.894531.425781 5.894531-14.785157zm0 0" fill="#fff" fill-opacity=".392157"/><path d="m55.632812 5.792969-.066406 7.40625h-5.289062c-1.1875 0-1.308594 2.117187-1.246094 2.492187.0625-.753906.351562-1.960937 1.246094-1.960937h5.289062l.070313-7.9375zm-22.871093 7.382812c-1.6875.007813-5.550781.175781-6.300781.023438v.53125c.800781.164062 5.140624-.039063 6.609374-.023438 1.023438.011719 1.34375.542969 1.417969 1.054688.070313-.582031-.015625-1.570313-1.417969-1.585938-.09375-.003906-.195312-.003906-.308593 0zm1.652343 2.488281c-.007812.027344-.015624.050782-.015624.050782s.136718 3.222656.136718 14.964844c0 1.230468.003906 2.378906.003906 3.453124 0-1.230468-.003906-2.546874-.003906-3.984374 0-9.382813-.085937-13.28125-.121094-14.484376zm14.644532.617188c0 .003906 0 .003906-.003906.003906-.015626 2.761719-.207032 26.828125-1.425782 29.988282-3.652344 7.941406-10.582031 9.261718-18.835937 9.292968-7.0625-.121094-20.796875-.03125-20.746094-13.148437-.003906.148437-.003906.296875 0 .449219-.109375 13.199218 13.667969 13.109374 20.746094 13.230468 8.253906-.03125 15.183593-1.347656 18.835937-9.292968 1.292969-3.347657 1.429688-30.523438 1.429688-30.523438zm-22.726563 25.066406c-.054687 1.171875-.496093 2.429688-1.425781 3.726563-1.011719 1.121093-1.460938 2.011719-1.316406 2.675781.109375-.585938.554687-1.296875 1.316406-2.140625 1.074219-1.496094 1.492188-2.941406 1.425781-4.261719zm0 0" fill-opacity=".235294"/><path d="m211.667287-168.660675v63.493936c6.405638 1.312375 41.121073-.31247 52.869951-.187482 15.935978.187482 10.623985 16.060967 10.623985 16.060967s1.093646 25.778788 1.093646 119.707318c0 157.266232 2.156044 153.20412-47.1205 153.110379-42.089731-.093741-50.463931-10.936456-29.903395-33.684283 31.372005-43.77707-6.936837-82.148406-51.057624-85.679319-42.339707 0-84.679413 0-83.804497 63.743913-.874916 105.583667 109.333309 104.864986 165.952902 105.833644 66.024945-.249977 121.457152-10.780221 150.673112-74.336652 10.342762-26.778692 11.436408-244.164183 11.436408-244.164183-.84367.749928-.84367-20.404302 9.749069-20.404302h42.308459l.562447-63.493936zm0 0" fill="none" stroke="#212121" stroke-width="3" transform="matrix(.125012 0 0 .125012 0 26.877566)"/></svg>

<?xml version="1.0" encoding="UTF-8"?>
<svg xmlns="http://www.w3.org/2000/svg" xmlns:xlink="http://www.w3.org/1999/xlink" width="64px" height="64px" viewBox="0 0 64 64" version="1.1">
<defs>
<linearGradient id="linear0" gradientUnits="userSpaceOnUse" x1="254" y1="233.500015" x2="254" y2="254.666672" gradientTransform="matrix(0.125012,0,0,0.125012,-4.630653,26.877563)">
<stop offset="0" style="stop-color:rgb(0%,0%,0%);stop-opacity:0.27451;"/>
<stop offset="1" style="stop-color:rgb(0%,0%,0%);stop-opacity:0;"/>
</linearGradient>
<radialGradient id="radial0" gradientUnits="userSpaceOnUse" cx="450.908936" cy="189.579361" fx="450.908936" fy="189.579361" r="21.166656" gradientTransform="matrix(0.000000348341,-0.156265,-0.281277,-0.000000203077,86.400218,127.190669)">
<stop offset="0" style="stop-color:rgb(0%,0%,0%);stop-opacity:0.313726;"/>
<stop offset="0.222222" style="stop-color:rgb(0%,0%,0%);stop-opacity:0.27451;"/>
<stop offset="1" style="stop-color:rgb(0%,0%,0%);stop-opacity:0;"/>
</radialGradient>
<radialGradient id="radial1" gradientUnits="userSpaceOnUse" cx="450.908936" cy="189.579361" fx="450.908936" fy="189.579361" r="21.166656" gradientTransform="matrix(-0.000000348341,0.156265,0.281277,0.000000203077,-22.894146,-15.05496)">
<stop offset="0" style="stop-color:rgb(0%,0%,0%);stop-opacity:0.313726;"/>
<stop offset="0.222222" style="stop-color:rgb(0%,0%,0%);stop-opacity:0.27451;"/>
<stop offset="1" style="stop-color:rgb(0%,0%,0%);stop-opacity:0;"/>
</radialGradient>
<radialGradient id="radial2" gradientUnits="userSpaceOnUse" cx="450.908936" cy="189.579361" fx="450.908936" fy="189.579361" r="21.166656" gradientTransform="matrix(-0.000000348341,-0.156265,0.281277,-0.000000203077,-22.894146,127.190669)">
<stop offset="0" style="stop-color:rgb(0%,0%,0%);stop-opacity:0.313726;"/>
<stop offset="0.222222" style="stop-color:rgb(0%,0%,0%);stop-opacity:0.27451;"/>
<stop offset="1" style="stop-color:rgb(0%,0%,0%);stop-opacity:0;"/>
</radialGradient>
<radialGradient id="radial3" gradientUnits="userSpaceOnUse" cx="450.908936" cy="189.579361" fx="450.908936" fy="189.579361" r="21.166656" gradientTransform="matrix(0.000000348341,0.156265,-0.281277,0.000000203077,86.400214,-15.054966)">
<stop offset="0" style="stop-color:rgb(0%,0%,0%);stop-opacity:0.313726;"/>
<stop offset="0.222222" style="stop-color:rgb(0%,0%,0%);stop-opacity:0.27451;"/>
<stop offset="1" style="stop-color:rgb(0%,0%,0%);stop-opacity:0;"/>
</radialGradient>
<linearGradient id="linear1" gradientUnits="userSpaceOnUse" x1="254" y1="297" x2="254.000015" y2="-253.333328" gradientTransform="matrix(0.125012,0,0,0.125012,0,26.877566)">
<stop offset="0" style="stop-color:rgb(100%,65.490198%,14.901961%);stop-opacity:1;"/>
<stop offset="1" style="stop-color:rgb(100%,71.764708%,30.19608%);stop-opacity:1;"/>
</linearGradient>
</defs>
<g id="surface1">
<path style=" stroke:none;fill-rule:nonzero;fill:url(#linear0);" d="M 29.769531 55.074219 L 33.738281 55.074219 L 33.738281 58.714844 L 29.769531 58.714844 Z M 29.769531 55.074219 "/>
<path style=" stroke:none;fill-rule:nonzero;fill:url(#radial0);" d="M 33.738281 56.066406 L 39.03125 56.066406 L 39.03125 53.421875 L 33.738281 53.421875 Z M 33.738281 56.066406 "/>
<path style=" stroke:none;fill-rule:nonzero;fill:url(#radial1);" d="M 29.769531 56.066406 L 24.476562 56.066406 L 24.476562 58.714844 L 29.769531 58.714844 Z M 29.769531 56.066406 "/>
<path style=" stroke:none;fill-rule:nonzero;fill:url(#radial2);" d="M 29.769531 56.066406 L 24.476562 56.066406 L 24.476562 53.421875 L 29.769531 53.421875 Z M 29.769531 56.066406 "/>
<path style=" stroke:none;fill-rule:nonzero;fill:url(#radial3);" d="M 33.738281 56.066406 L 39.03125 56.066406 L 39.03125 58.714844 L 33.738281 58.714844 Z M 33.738281 56.066406 "/>
<path style=" stroke:none;fill-rule:nonzero;fill:url(#linear1);" d="M 26.460938 5.792969 L 26.460938 13.730469 C 27.261719 13.894531 31.601562 13.691406 33.070312 13.707031 C 35.0625 13.730469 34.398438 15.714844 34.398438 15.714844 C 34.398438 15.714844 34.535156 18.9375 34.535156 30.679688 C 34.535156 50.339844 34.804688 49.832031 28.644531 49.820312 C 23.382812 49.808594 22.335938 48.453125 24.90625 45.609375 C 28.828125 40.136719 24.039062 35.339844 18.523438 34.898438 C 13.230469 34.898438 7.9375 34.898438 8.046875 42.867188 C 7.9375 56.066406 21.714844 55.976562 28.792969 56.097656 C 37.046875 56.066406 43.976562 54.75 47.628906 46.804688 C 48.921875 43.457031 49.058594 16.28125 49.058594 16.28125 C 48.953125 16.375 48.953125 13.730469 50.277344 13.730469 L 55.566406 13.730469 L 55.636719 5.792969 Z M 26.460938 5.792969 "/>
<path style=" stroke:none;fill-rule:nonzero;fill:rgb(100%,100%,100%);fill-opacity:0.392157;" d="M 26.460938 5.792969 L 26.460938 6.453125 L 55.632812 6.453125 L 55.636719 5.792969 Z M 34.476562 15.363281 C 34.445312 15.574219 34.398438 15.714844 34.398438 15.714844 C 34.398438 15.714844 34.40625 15.910156 34.417969 16.3125 C 34.460938 16.160156 34.550781 15.765625 34.476562 15.363281 Z M 49.039062 16.261719 C 49 16.652344 49.019531 16.949219 49.054688 16.945312 C 49.054688 16.691406 49.058594 16.28125 49.058594 16.28125 C 49.050781 16.289062 49.046875 16.28125 49.039062 16.261719 Z M 18.523438 34.898438 C 13.230469 34.898438 7.9375 34.898438 8.046875 42.867188 C 8.042969 42.941406 8.046875 43.007812 8.046875 43.078125 C 8.140625 35.5625 13.332031 35.5625 18.523438 35.5625 C 22.507812 35.878906 26.113281 38.472656 26.328125 41.949219 C 26.5625 38.144531 22.757812 35.238281 18.523438 34.898438 Z M 34.539062 35.695312 C 34.53125 50.246094 34.226562 49.832031 28.644531 49.820312 C 25.519531 49.8125 23.878906 49.332031 23.605469 48.34375 C 23.277344 49.78125 24.886719 50.472656 28.644531 50.480469 C 34.308594 50.492188 34.539062 50.90625 34.539062 35.695312 Z M 34.539062 35.695312 "/>
<path style=" stroke:none;fill-rule:nonzero;fill:rgb(0%,0%,0%);fill-opacity:0.235294;" d="M 55.632812 5.792969 L 55.566406 13.199219 L 50.277344 13.199219 C 49.089844 13.199219 48.96875 15.316406 49.03125 15.691406 C 49.09375 14.9375 49.382812 13.730469 50.277344 13.730469 L 55.566406 13.730469 L 55.636719 5.792969 Z M 32.761719 13.175781 C 31.074219 13.183594 27.210938 13.351562 26.460938 13.199219 L 26.460938 13.730469 C 27.261719 13.894531 31.601562 13.691406 33.070312 13.707031 C 34.09375 13.71875 34.414062 14.25 34.488281 14.761719 C 34.558594 14.179688 34.472656 13.191406 33.070312 13.175781 C 32.976562 13.171875 32.875 13.171875 32.761719 13.175781 Z M 34.414062 15.664062 C 34.40625 15.691406 34.398438 15.714844 34.398438 15.714844 C 34.398438 15.714844 34.535156 18.9375 34.535156 30.679688 C 34.535156 31.910156 34.539062 33.058594 34.539062 34.132812 C 34.539062 32.902344 34.535156 31.585938 34.535156 30.148438 C 34.535156 20.765625 34.449219 16.867188 34.414062 15.664062 Z M 49.058594 16.28125 C 49.058594 16.285156 49.058594 16.285156 49.054688 16.285156 C 49.039062 19.046875 48.847656 43.113281 47.628906 46.273438 C 43.976562 54.214844 37.046875 55.535156 28.792969 55.566406 C 21.730469 55.445312 7.996094 55.535156 8.046875 42.417969 C 8.042969 42.566406 8.042969 42.714844 8.046875 42.867188 C 7.9375 56.066406 21.714844 55.976562 28.792969 56.097656 C 37.046875 56.066406 43.976562 54.75 47.628906 46.804688 C 48.921875 43.457031 49.058594 16.28125 49.058594 16.28125 Z M 26.332031 41.347656 C 26.277344 42.519531 25.835938 43.777344 24.90625 45.074219 C 23.894531 46.195312 23.445312 47.085938 23.589844 47.75 C 23.699219 47.164062 24.144531 46.453125 24.90625 45.609375 C 25.980469 44.113281 26.398438 42.667969 26.332031 41.347656 Z M 26.332031 41.347656 "/>
<path style="fill:none;stroke-width:3;stroke-linecap:butt;stroke-linejoin:miter;stroke:rgb(12.941177%,12.941177%,12.941177%);stroke-opacity:1;stroke-miterlimit:4;" d="M 211.667287 -168.660675 L 211.667287 -105.166739 C 218.072925 -103.854364 252.78836 -105.479209 264.537238 -105.354221 C 280.473216 -105.166739 275.161223 -89.293254 275.161223 -89.293254 C 275.161223 -89.293254 276.254869 -63.514466 276.254869 30.414064 C 276.254869 187.680296 278.410913 183.618184 229.134369 183.524443 C 187.044638 183.430702 178.670438 172.587987 199.230974 149.84016 C 230.602979 106.06309 192.294137 67.691754 148.17335 64.160841 C 105.833643 64.160841 63.493937 64.160841 64.368853 127.904754 C 63.493937 233.488421 173.702162 232.76974 230.321755 233.738398 C 296.3467 233.488421 351.778907 222.958177 380.994867 159.401746 C 391.337629 132.623054 392.431275 -84.762437 392.431275 -84.762437 C 391.587605 -84.012509 391.587605 -105.166739 402.180344 -105.166739 L 444.488803 -105.166739 L 445.05125 -168.660675 Z M 211.667287 -168.660675 " transform="matrix(0.125012,0,0,0.125012,0,26.877566)"/>
</g>
</svg>
